public/themes/EC/images/check-list.svg

<?xml version="1.0" encoding="UTF-8"?>
<svg width="15px" height="15px" viewBox="0 0 15 15" version="1.1" xmlns="http://www.w3.org/2000/svg" xmlns:xlink="http://www.w3.org/1999/xlink">
    <!-- Generator: Sketch 61 (89581) - https://sketch.com -->
    <title>Group 3</title>
    <desc>Created with Sketch.</desc>
    <g id="Page-1" stroke="none" stroke-width="1" fill="none" fill-rule="evenodd">
        <g id="Artboard" transform="translate(-37.000000, -200.000000)">
            <g id="Group-3" transform="translate(37.000000, 200.000000)">
                <circle id="Oval" fill="#EBDAD3" cx="7.5" cy="7.5" r="7.5"></circle>
                <path d="M11.9063922,4.95768115 L11.1040988,4.16445316 C10.8819949,3.94518228 10.5233426,3.94518228 10.3012387,4.16445316 L6.54303781,7.85919582 L4.77187302,6.12769244 C4.54976919,5.90842156 4.19111682,5.90842156 3.96901298,6.12769244 L3.16615293,6.92092043 C2.94461569,7.14019131 2.94461569,7.49544413 3.16615293,7.71414842 L5.33959763,9.84169921 L6.14189108,10.6349272 C6.36399492,10.8541981 6.72264729,10.8541981 6.94475113,10.6349272 L7.74704458,9.84169921 L11.9063922,5.75034255 C12.1279295,5.53163826 12.1279295,5.17695203 11.9063922,4.95768115 Z M6.74361117,10.0405728 C6.65465632,10.1283945 6.52094074,10.1459588 6.41498815,10.0921326 C6.41385497,10.091566 6.38155926,10.0734351 6.36796106,10.0626699 C6.3588956,10.0553042 6.14189108,9.84169921 6.14189108,9.84169921 L3.76843962,7.51584142 C3.65795429,7.40648928 3.65795429,7.22857957 3.76843962,7.11922743 L4.17015293,6.72318002 C4.28063826,6.61382788 4.46081433,6.61382788 4.57129966,6.72318002 L6.54303781,8.65185722 L10.5018121,4.75937415 C10.6122974,4.65002201 10.7924735,4.65002201 10.9029588,4.75937415 L11.3046721,5.15598815 C11.4151574,5.26534029 11.4151574,5.44325 11.3046721,5.55260214 L6.74361117,10.0405728 Z" id="Shape" fill="#000000" fill-rule="nonzero"></path>
            </g>
        </g>
    </g>
</svg>

<svg width="15" height="15" viewBox="0 0 15 15" xmlns="http://www.w3.org/2000/svg"><title>Group 3</title><g fill="none" fill-rule="evenodd"><circle fill="#EBDAD3" cx="7.5" cy="7.5" r="7.5"/><path d="M11.906 4.958l-.802-.794a.572.572 0 0 0-.803 0L6.543 7.86 4.772 6.128a.572.572 0 0 0-.803 0l-.803.793a.556.556 0 0 0 0 .793L5.34 9.842l.802.793c.222.22.58.22.803 0l.802-.793 4.16-4.092a.556.556 0 0 0 0-.792zM6.744 10.04a.285.285 0 0 1-.376.022c-.01-.008-.226-.221-.226-.221L3.768 7.516a.279.279 0 0 1 0-.397l.402-.396c.11-.11.29-.11.401 0l1.972 1.929 3.959-3.893a.287.287 0 0 1 .401 0l.402.397a.28.28 0 0 1 0 .397L6.744 10.04z" fill="#000" fill-rule="nonzero"/></g></svg>
